!!!SOCIAL_FUNCTION:	songs with hunting dance
!!!PDT:	1956
!!!OTL: No_37_Cow_Creek_Hunting_Dance_Song_(d).krn
!!!LANG: Non-Tone
!!!LING_GROUP: Muskogean
!!!REG: Florida
**kern
*staff1
=1-
*clefF4
*k[b-]
*M3/4
12d\L
12d\
12d\J
8.d\L
16c\Jk
8.c\L
16d\Jk
=2
12d\L
[12c\
12c\J]
2c\
=3||
*M2/4
4c\
8G\
16r
16c\
=4
8.c\L
16A\Jk
4G\
=5
2F\
=6
4F\
8.D\L
16G\Jk
=7
8.G\L
16F\Jk
4D\
=8
4C/
8.C/L
16C/Jk
=9||
*M3/4
4C/
8C/
8r
4G\
=10||
*M2/4
2B-\
=11
4B-\
8.G\L
16c\Jk
=12
8.c\L
16B-\Jk
4G\
=13
2F\
=14
4F\
8.D\L
16G\Jk
=15
8.G\L
16F\Jk
4D\
=16
2C/
=17
4C/
4C/
=18
[2c\
=19
(8c\L]
8G\J)
4c\
*-
